X:2412
T:Untitled Carval 
C:Manx National Music carval XIV 
C:Traditional
O:Isle of Man
N:See KV267
Z:Kiaull Vannin 412 
M:3/2 
L:1/4 
Q:100 
K:D 
F B A|B2 AG FE|F3c dd|c2d BA B|c3fe d| 
c2d B AB/G/|F3 FFE|D2 B dc c|B3|| 

